resources/luts/cinematic.cube
TITLE "Mental Empire Cinematic"
LUT_3D_SIZE 2
0.020000 0.010000 0.040000
0.900000 0.030000 0.020000
0.040000 0.830000 0.060000
0.980000 0.880000 0.080000
0.000000 0.020000 0.760000
0.780000 0.080000 0.820000
0.030000 0.780000 0.880000
1.000000 0.960000 0.860000
