resources/luts/gold.cube
TITLE "Mental Empire Gold"
LUT_3D_SIZE 2
0.030000 0.010000 0.000000
1.000000 0.070000 0.010000
0.090000 0.860000 0.020000
1.000000 0.900000 0.040000
0.030000 0.020000 0.700000
1.000000 0.120000 0.760000
0.130000 0.860000 0.780000
1.000000 0.950000 0.760000
