resources/luts/intense.cube
TITLE "Mental Empire Intense"
LUT_3D_SIZE 2
0.000000 0.000000 0.000000
1.000000 0.000000 0.000000
0.000000 0.920000 0.000000
1.000000 0.980000 0.000000
0.000000 0.000000 0.900000
1.000000 0.000000 1.000000
0.000000 0.980000 1.000000
1.000000 1.000000 1.000000
