resources/luts/noir.cube
TITLE "Mental Empire Noir"
LUT_3D_SIZE 2
0.000000 0.000000 0.000000
0.600000 0.600000 0.600000
0.720000 0.720000 0.720000
0.870000 0.870000 0.870000
0.180000 0.180000 0.180000
0.760000 0.760000 0.760000
0.820000 0.820000 0.820000
1.000000 1.000000 1.000000
